X: 451
T: Ergenggu xiangdaoni jir jiao
%%abc-version 2.0
%%abcx-abcm2ps-target-version 5.9.1 (29 Sep 2008)
%%abc-creator hum2abc beta
%%abcx-conversion-date 2013/10/02 07:52:30
%%abc-edited-by Helmut Schaffrath
%%humdrum-veritas 4110780423
%%humdrum-veritas-data 4054321271
%%continueall 1
%%barnumbers 0
L: 1/8
M: 2/4
K: C
d2d d [I:setbarnb 1]| 
ee2d | 
c2A G | 
E4 | 
d2d d | 
ee2d | 
c AE2 | 
d c/ A/ G A |]  



